src/images_karasa_jaga_svg/cmd/32/arrowshapes.corner-right-arrow.svg

<svg height="32" viewBox="0 0 32 32" width="32" xmlns="http://www.w3.org/2000/svg" xmlns:xlink="http://www.w3.org/1999/xlink"><linearGradient id="a" gradientTransform="matrix(.42447773 0 0 .25739099 19.05667 80.235347)" gradientUnits="userSpaceOnUse" x1="30.492365" x2="30.492365" y1="185.57236" y2="-296.185"><stop offset="0" stop-color="#fff"/><stop offset=".51612902" stop-color="#fff"/><stop offset=".80645162" stop-color="#f1f1f1"/><stop offset=".90322578" stop-color="#eaeaea"/><stop offset="1" stop-color="#dfdfdf"/></linearGradient><linearGradient id="b" gradientUnits="userSpaceOnUse" x1="20.009766" x2="126.51306" y1="63.276596" y2="63.276596"><stop offset="0" stop-color="#7c9fcf"/><stop offset=".5" stop-color="#7c9ece"/><stop offset="1" stop-color="#7b9dcf"/></linearGradient><g fill-rule="evenodd" transform="scale(.25)"><path d="m24 .00976563a3.9915366 3.9915366 0 0 0 -3.990234 3.99023437v84 20a3.9915366 3.9915366 0 0 0 3.990234 3.99023h20 48.009766v9.26563c-.04053 2.54188 1.459151 4.02867 3.083984 4.80859 1.624833.77993 4.334624.7103 6.02734-.98242l23.91797-22.86719a3.9915366 3.9915366 0 0 0 .0645-.0625c1.26617-1.26616 1.04325-1.67256 1.14062-2.03711.0974-.364539.13765-.62045.17188-.861324.0684-.481748.10464-.626892.0957-1.292968a3.9915366 3.9915366 0 0 0 0-.002c-.007-.530922-.0358-.735285-.10742-1.224609-.0358-.244662-.076-.507312-.17774-.880859-.10176-.373548.13429-.804428-1.20508-2.085938a3.9915366 3.9915366 0 0 0 0-.002l-24.31058-23.25772c-3.01779-2.887117-8.667928-.94385-8.701174 3.564454a3.9915366 3.9915366 0 0 0 0 .0293v9.908204h-44.019532v-80.00977a3.9915366 3.9915366 0 0 0 -3.990234-3.99023437z" fill="url(#b)"/><path d="m24 3.9999986v84.0000004 20.000001h19.999999 52.000002v13.32031c-.015.94078 1.436699 1.80159 2.298832.93946l23.982417-22.929692c.16385-.163848.24319-1.096376.24024-1.316015-.003-.219639-.0859-1.197314-.25977-1.363673l-24.31055-23.257812c-.758058-.725234-1.944804-.154122-1.951169.708983v13.898438h-52.000002v-84.0000004z" fill="url(#a)"/></g></svg>

<?xml version="1.0" encoding="UTF-8" standalone="no"?>
<!-- Created with Inkscape (http://www.inkscape.org/) -->

<svg
   xmlns:dc="http://purl.org/dc/elements/1.1/"
   xmlns:cc="http://creativecommons.org/ns#"
   xmlns:rdf="http://www.w3.org/1999/02/22-rdf-syntax-ns#"
   xmlns:svg="http://www.w3.org/2000/svg"
   xmlns="http://www.w3.org/2000/svg"
   xmlns:xlink="http://www.w3.org/1999/xlink"
   xmlns:sodipodi="http://sodipodi.sourceforge.net/DTD/sodipodi-0.dtd"
   xmlns:inkscape="http://www.inkscape.org/namespaces/inkscape"
   version="1.1"
   id="svg2"
   width="128"
   height="128"
   viewBox="0 0 128 128"
   sodipodi:docname="arrowshapes.corner-right-arrow.svg"
   inkscape:export-filename="/home/rizmut/Dokumen/Rizmut/Github/libreoffice-style-karasa-jaga/build/images_karasa_jaga/cmd/32/arrowshapes.corner-right-arrow.png"
   inkscape:export-xdpi="24"
   inkscape:export-ydpi="24"
   inkscape:version="0.92.3 (unknown)">
  <metadata
     id="metadata8">
    <rdf:RDF>
      <cc:Work
         rdf:about="">
        <dc:format>image/svg+xml</dc:format>
        <dc:type
           rdf:resource="http://purl.org/dc/dcmitype/StillImage" />
        <dc:title></dc:title>
      </cc:Work>
    </rdf:RDF>
  </metadata>
  <defs
     id="defs6">
    <inkscape:perspective
       id="perspective27"
       inkscape:persp3d-origin="64 : 42.666667 : 1"
       inkscape:vp_z="128 : 64 : 1"
       inkscape:vp_y="0 : 1000 : 0"
       inkscape:vp_x="0 : 64 : 1"
       sodipodi:type="inkscape:persp3d" />
    <linearGradient
       id="linearGradient3369">
      <stop
         id="stop3372"
         offset="0"
         style="stop-color:#ffffff;stop-opacity:1;" />
      <stop
         style="stop-color:#ffffff;stop-opacity:1;"
         offset="0.51612902"
         id="stop3374" />
      <stop
         style="stop-color:#f1f1f1;stop-opacity:1;"
         offset="0.80645162"
         id="stop3376" />
      <stop
         id="stop3378"
         offset="0.90322578"
         style="stop-color:#eaeaea;stop-opacity:1;" />
      <stop
         id="stop3384"
         offset="1"
         style="stop-color:#dfdfdf;stop-opacity:1;" />
    </linearGradient>
    <linearGradient
       id="linearGradient7422">
      <stop
         style="stop-color:#7c9fcf;stop-opacity:1"
         offset="0"
         id="stop7424" />
      <stop
         id="stop5348"
         offset="0.5"
         style="stop-color:#7c9ece;stop-opacity:1" />
      <stop
         id="stop7426"
         offset="1"
         style="stop-color:#7b9dcf;stop-opacity:1" />
    </linearGradient>
    <linearGradient
       y2="388.95178"
       x2="399.77466"
       y1="1324.7792"
       x1="405.94968"
       gradientTransform="matrix(0.08097132,0,0,0.07807154,182.74486,-6.9021226)"
       gradientUnits="userSpaceOnUse"
       id="linearGradient2330"
       xlink:href="#linearGradient7422"
       inkscape:collect="always" />
    <linearGradient
       y2="-296.185"
       x2="30.492365"
       y1="185.57236"
       x1="30.492365"
       gradientTransform="matrix(0.42447773,0,0,0.25739099,19.05667,80.235347)"
       gradientUnits="userSpaceOnUse"
       id="linearGradient2360"
       xlink:href="#linearGradient3369"
       inkscape:collect="always" />
    <linearGradient
       inkscape:collect="always"
       xlink:href="#linearGradient7422"
       id="linearGradient845"
       x1="20.009766"
       y1="63.276596"
       x2="126.51306"
       y2="63.276596"
       gradientUnits="userSpaceOnUse" />
  </defs>
  <sodipodi:namedview
     pagecolor="#ffffff"
     bordercolor="#666666"
     borderopacity="1"
     objecttolerance="10"
     gridtolerance="10"
     guidetolerance="10"
     inkscape:pageopacity="0"
     inkscape:pageshadow="2"
     inkscape:window-width="1366"
     inkscape:window-height="706"
     id="namedview4"
     showgrid="true"
     inkscape:snap-page="true"
     inkscape:snap-global="true"
     inkscape:zoom="0.86600386"
     inkscape:cx="141.99424"
     inkscape:cy="239.34141"
     inkscape:window-x="0"
     inkscape:window-y="0"
     inkscape:window-maximized="1"
     inkscape:current-layer="svg2"
     showguides="false">
    <inkscape:grid
       type="xygrid"
       id="grid837"
       spacingx="4"
       spacingy="4"
       empspacing="1" />
  </sodipodi:namedview>
  <path
     sodipodi:type="inkscape:offset"
     inkscape:radius="3.9911375"
     inkscape:original="M 24 4 L 24 88 L 24 108 L 44 108 L 96 108 L 96 121.32031 C 95.985 122.26109 97.436695 123.1219 98.298828 122.25977 L 122.28125 99.330078 C 122.4451 99.16623 122.52443 98.233311 122.52148 98.013672 C 122.51848 97.794033 122.43559 96.81675 122.26172 96.650391 L 97.951172 73.392578 C 97.193114 72.667344 96.006365 73.238457 96 74.101562 L 96 88 L 44 88 L 44 4 L 24 4 z "
     style="fill:url(#linearGradient845);fill-opacity:1.0;fill-rule:evenodd;stroke:none;stroke-width:4.6329999;stroke-linecap:round;stroke-linejoin:round;stroke-miterlimit:4;stroke-dasharray:none;stroke-opacity:1"
     id="path835"
     d="M 24,0.00976563 A 3.9915366,3.9915366 0 0 0 20.009766,4 v 84 20 A 3.9915366,3.9915366 0 0 0 24,111.99023 h 20 48.009766 v 9.26563 c -0.04053,2.54188 1.459151,4.02867 3.083984,4.80859 1.624833,0.77993 4.334624,0.7103 6.02734,-0.98242 l 23.91797,-22.86719 a 3.9915366,3.9915366 0 0 0 0.0645,-0.0625 c 1.26617,-1.26616 1.04325,-1.67256 1.14062,-2.03711 0.0974,-0.364539 0.13765,-0.62045 0.17188,-0.861324 0.0684,-0.481748 0.10464,-0.626892 0.0957,-1.292968 a 3.9915366,3.9915366 0 0 0 0,-0.002 c -0.007,-0.530922 -0.0358,-0.735285 -0.10742,-1.224609 -0.0358,-0.244662 -0.076,-0.507312 -0.17774,-0.880859 -0.10176,-0.373548 0.13429,-0.804428 -1.20508,-2.085938 a 3.9915366,3.9915366 0 0 0 0,-0.002 L 100.71094,70.507812 c -3.01779,-2.887117 -8.667928,-0.94385 -8.701174,3.564454 a 3.9915366,3.9915366 0 0 0 0,0.0293 v 9.908204 H 47.990234 V 4 A 3.9915366,3.9915366 0 0 0 44,0.00976563 Z" />
  <path
     sodipodi:nodetypes="ccccccccsssscccc"
     inkscape:connector-curvature="0"
     id="rect2326"
     d="M 24,3.9999986 V 87.999999 108 h 19.999999 52.000002 v 13.32031 c -0.015,0.94078 1.436699,1.80159 2.298832,0.93946 L 122.28125,99.330078 c 0.16385,-0.163848 0.24319,-1.096376 0.24024,-1.316015 -0.003,-0.219639 -0.0859,-1.197314 -0.25977,-1.363673 L 97.95117,73.392578 c -0.758058,-0.725234 -1.944804,-0.154122 -1.951169,0.708983 V 87.999999 H 43.999999 V 3.9999986 Z"
     style="fill:url(#linearGradient2360);fill-opacity:1;fill-rule:evenodd;stroke:none;stroke-width:4.6329999;stroke-linecap:round;stroke-linejoin:round;stroke-miterlimit:4;stroke-dasharray:none;stroke-opacity:1" />
  <g
     transform="matrix(0,0.57912965,0.57912965,0,27.114229,-2.9133545)"
     inkscape:label="Livello 1"
     id="g1544" />
  <g
     transform="matrix(0,-0.57912965,0.57912965,0,27.114229,130.91165)"
     inkscape:label="Livello 1"
     id="g1599" />
</svg>
